; generated by Slic3r 1.2.9 on 2016-05-19 at 12:14:32

; external perimeters extrusion width = 0.50mm
; perimeters extrusion width = 0.72mm
; infill extrusion width = 0.72mm
; solid infill extrusion width = 0.72mm
; top infill extrusion width = 0.72mm

M107
M104 S215 ; set temperature
G28 ; home all axes
G1 Z5 F5000 ; lift nozzle

M109 S215 ; wait for temperature to be reached
G21 ; set units to millimeters
G90 ; use absolute coordinates
M82 ; use absolute distances for extrusion
G92 E0
G1 Z0.500 F7800.000
G1 E-2.00000 F2400.00000
G92 E0
G1 X94.560 Y94.560 F7800.000
G1 E2.00000 F2400.00000
G1 X106.942 Y82.179 E3.10572 F1800.000
G1 X108.854 Y80.829 E3.25346
G1 X111.106 Y80.197 E3.40120
G1 X113.441 Y80.354 E3.54894
G1 X115.588 Y81.284 E3.69669 F1800.000
G1 X116.690 Y82.179 E3.78632
G1 X117.821 Y83.310 E3.88736
G1 X119.171 Y85.222 E4.03510
G1 X119.803 Y87.474 E4.18284
G1 X119.646 Y89.809 E4.33058
G1 X118.716 Y91.956 E4.47832
G1 X117.821 Y93.058 E4.56800
G1 X93.058 Y117.821 E6.77936
G1 X91.147 Y119.171 E6.92710
G1 X88.894 Y119.803 E7.07484
G1 X86.560 Y119.646 E7.22258
G1 X84.413 Y118.716 E7.37032
G1 X83.310 Y117.821 E7.46000
G1 X82.179 Y116.690 E7.56103
G1 X80.829 Y114.778 E7.70878
G1 X80.197 Y112.526 E7.85652
G1 X80.354 Y110.191 E8.00426
G1 X81.284 Y108.044 E8.15200
G1 X82.179 Y106.942 E8.24168
G1 X94.507 Y94.613 E9.34262
G1 E7.34262 F2400.00000
G92 E0
G1 X88.184 Y112.240 F7800.000
G1 E2.00000 F2400.00000
G1 X87.760 Y111.816 E2.03789 F1800.000
G1 X111.816 Y87.760 E4.18610
G1 X112.240 Y88.184 E4.22399
G1 X88.237 Y112.187 E6.36746
G1 X88.055 Y111.757 F7800.000
G1 Z0.800 F7800.000
G1 X87.281 Y111.588 F7800.000
G1 X88.412 Y112.719 E6.41191 F1532.049
G1 X89.142 Y111.636 F7800.000
G1 X88.364 Y110.858 E6.43224 F766.024
G1 X89.305 Y109.917 E6.45685
G1 X90.083 Y110.695 E6.47719
G1 X89.195 Y111.583 E6.50042
G1 X89.013 Y111.153 F7800.000
G1 E4.50042 F2400.00000
G92 E0
G1 X90.437 Y110.695 F7800.000
G1 X90.687 Y110.444 F7800.000
G1 X90.687 Y110.444 F7800.000
G1 X90.938 Y110.193 F7800.000
G1 X90.938 Y109.840 F7800.000
G1 E2.00000 F2400.00000
G1 X90.160 Y109.062 E2.02034 F766.024
G1 X91.101 Y108.121 E2.04495
G1 X91.879 Y108.899 E2.06529
G1 X90.991 Y109.787 E2.08851
G1 X90.809 Y109.357 F7800.000
G1 E0.08851 F2400.00000
G92 E0
G1 X92.233 Y108.899 F7800.000
G1 X92.483 Y108.648 F7800.000
G1 X92.483 Y108.648 F7800.000
G1 X92.734 Y108.397 F7800.000
G1 X92.734 Y108.044 F7800.000
G1 E2.00000 F2400.00000
G1 X91.956 Y107.266 E2.02034 F766.024
G1 X92.898 Y106.325 E2.04495
G1 X93.675 Y107.102 E2.06529
G1 X92.787 Y107.991 E2.08851
G1 X92.605 Y107.561 F7800.000
G1 E0.08851 F2400.00000
G92 E0
G1 X94.029 Y107.102 F7800.000
G1 X94.280 Y106.852 F7800.000
G1 X94.280 Y106.852 F7800.000
G1 X94.530 Y106.601 F7800.000
G1 X94.530 Y106.248 F7800.000
G1 E2.00000 F2400.00000
G1 X93.752 Y105.470 E2.02034 F766.024
G1 X94.694 Y104.529 E2.04495
G1 X95.471 Y105.306 E2.06529
G1 X94.583 Y106.195 E2.08851
G1 X94.401 Y105.765 F7800.000
G1 E0.08851 F2400.00000
G92 E0
G1 X95.825 Y105.306 F7800.000
G1 X96.076 Y105.056 F7800.000
G1 X96.076 Y105.056 F7800.000
G1 X96.326 Y104.805 F7800.000
G1 X96.326 Y104.452 F7800.000
G1 E2.00000 F2400.00000
G1 X95.548 Y103.674 E2.02034 F766.024
G1 X96.490 Y102.733 E2.04495
G1 X97.267 Y103.510 E2.06529
G1 X96.379 Y104.399 E2.08851
G1 X96.197 Y103.969 F7800.000
G1 E0.08851 F2400.00000
G92 E0
G1 X97.621 Y103.510 F7800.000
G1 X97.872 Y103.260 F7800.000
G1 X97.872 Y103.260 F7800.000
G1 X98.122 Y103.009 F7800.000
G1 X98.122 Y102.656 F7800.000
G1 E2.00000 F2400.00000
G1 X97.344 Y101.878 E2.02034 F766.024
G1 X98.286 Y100.937 E2.04495
G1 X99.063 Y101.714 E2.06529
G1 X98.175 Y102.603 E2.08851
G1 X97.993 Y102.173 F7800.000
G1 E0.08851 F2400.00000
G92 E0
G1 X99.417 Y101.714 F7800.000
G1 X99.668 Y101.464 F7800.000
G1 X99.668 Y101.464 F7800.000
G1 X99.918 Y101.213 F7800.000
G1 X99.918 Y100.860 F7800.000
G1 E2.00000 F2400.00000
G1 X99.140 Y100.082 E2.02034 F766.024
G1 X100.082 Y99.140 E2.04495
G1 X100.860 Y99.918 E2.06529
G1 X99.971 Y100.807 E2.08851
G1 X99.789 Y100.377 F7800.000
G1 E0.08851 F2400.00000
G92 E0
G1 X101.213 Y99.918 F7800.000
G1 X101.464 Y99.668 F7800.000
G1 X101.464 Y99.668 F7800.000
G1 X101.714 Y99.417 F7800.000
G1 X101.714 Y99.063 F7800.000
G1 E2.00000 F2400.00000
G1 X100.937 Y98.286 E2.02034 F766.024
G1 X101.878 Y97.344 E2.04495
G1 X102.656 Y98.122 E2.06529
G1 X101.767 Y99.010 E2.08851
G1 X101.585 Y98.581 F7800.000
G1 E0.08851 F2400.00000
G92 E0
G1 X103.009 Y98.122 F7800.000
G1 X103.260 Y97.872 F7800.000
G1 X103.260 Y97.872 F7800.000
G1 X103.510 Y97.621 F7800.000
G1 X103.510 Y97.267 F7800.000
G1 E2.00000 F2400.00000
G1 X102.733 Y96.490 E2.02034 F766.024
G1 X103.674 Y95.548 E2.04495
G1 X104.452 Y96.326 E2.06529
G1 X103.563 Y97.214 E2.08851
G1 X103.381 Y96.784 F7800.000
G1 E0.08851 F2400.00000
G92 E0
G1 X104.805 Y96.326 F7800.000
G1 X105.056 Y96.076 F7800.000
G1 X105.056 Y96.076 F7800.000
G1 X105.306 Y95.825 F7800.000
G1 X105.306 Y95.471 F7800.000
G1 E2.00000 F2400.00000
G1 X104.529 Y94.694 E2.02034 F766.024
G1 X105.470 Y93.752 E2.04495
G1 X106.248 Y94.530 E2.06529
G1 X105.359 Y95.418 E2.08851
G1 X105.177 Y94.988 F7800.000
G1 E0.08851 F2400.00000
G92 E0
G1 X106.601 Y94.530 F7800.000
G1 X106.852 Y94.280 F7800.000
G1 X106.852 Y94.280 F7800.000
G1 X107.102 Y94.029 F7800.000
G1 X107.102 Y93.675 F7800.000
G1 E2.00000 F2400.00000
G1 X106.325 Y92.898 E2.02034 F766.024
G1 X107.266 Y91.956 E2.04495
G1 X108.044 Y92.734 E2.06529
G1 X107.156 Y93.622 E2.08851
G1 X106.973 Y93.192 F7800.000
G1 E0.08851 F2400.00000
G92 E0
G1 X108.397 Y92.734 F7800.000
G1 X108.648 Y92.483 F7800.000
G1 X108.648 Y92.483 F7800.000
G1 X108.899 Y92.233 F7800.000
G1 X108.899 Y91.879 F7800.000
G1 E2.00000 F2400.00000
G1 X108.121 Y91.101 E2.02034 F766.024
G1 X109.062 Y90.160 E2.04495
G1 X109.840 Y90.938 E2.06529
G1 X108.952 Y91.826 E2.08851
G1 X108.769 Y91.396 F7800.000
G1 E0.08851 F2400.00000
G92 E0
G1 X110.193 Y90.938 F7800.000
G1 X110.444 Y90.687 F7800.000
G1 X110.444 Y90.687 F7800.000
G1 X110.695 Y90.437 F7800.000
G1 X110.695 Y90.083 F7800.000
G1 E2.00000 F2400.00000
G1 X109.917 Y89.305 E2.02034 F766.024
G1 X110.858 Y88.364 E2.04495
G1 X111.636 Y89.142 E2.06529
G1 X110.748 Y90.030 E2.08851
G1 X110.565 Y89.600 F7800.000
G1 E0.08851 F2400.00000
G92 E0
G1 X111.989 Y89.142 F7800.000
G1 X112.240 Y88.891 F7800.000
G1 X112.240 Y88.891 F7800.000
G1 X112.491 Y88.641 F7800.000
G1 X112.719 Y88.412 F7800.000
G1 E2.00000 F2400.00000
G1 X111.588 Y87.281 E2.04444 F1532.049
G1 Z1.100 F7800.000
G1 E0.04444 F2400.00000
G92 E0
G1 X87.231 Y111.637 F7800.000
G1 E2.00000 F2400.00000
G1 X88.363 Y112.769 E2.04444 F1355.819
G1 E0.04444 F2400.00000
G92 E0
G1 X88.541 Y112.590 F7800.000
G1 X88.891 Y112.240 F7800.000
G1 X89.242 Y111.890 F7800.000
G1 X89.983 Y110.794 F7800.000
G1 E2.00000 F2400.00000
G1 X89.242 Y111.536 E2.01939 F677.910
G1 X88.464 Y110.758 E2.03973
G1 X89.206 Y110.017 E2.05912
G1 X89.930 Y110.741 E2.07807
G1 X89.500 Y110.924 F7800.000
G1 X91.038 Y109.740 F7800.000
G1 X90.260 Y108.962 E2.09840 F677.910
G1 X91.002 Y108.221 E2.11779
G1 X91.779 Y108.998 E2.13813
G1 X91.091 Y109.687 E2.15613
G1 X90.908 Y109.257 F7800.000
G1 E0.15613 F2400.00000
G92 E0
G1 X92.133 Y108.998 F7800.000
G1 X92.483 Y108.648 F7800.000
G1 X92.483 Y108.648 F7800.000
G1 X92.834 Y108.297 F7800.000
G1 X92.834 Y107.944 F7800.000
G1 E2.00000 F2400.00000
G1 X92.056 Y107.166 E2.02034 F677.910
G1 X92.798 Y106.425 E2.03973
G1 X93.575 Y107.202 E2.06006
G1 X92.887 Y107.891 E2.07807
G1 X92.705 Y107.461 F7800.000
G1 E0.07807 F2400.00000
G92 E0
G1 X93.929 Y107.202 F7800.000
G1 X94.280 Y106.852 F7800.000
G1 X94.280 Y106.852 F7800.000
G1 X94.630 Y106.501 F7800.000
G1 X94.630 Y106.148 F7800.000
G1 E2.00000 F2400.00000
G1 X93.852 Y105.370 E2.02034 F677.910
G1 X94.594 Y104.628 E2.03973
G1 X95.372 Y105.406 E2.06006
G1 X94.683 Y106.095 E2.07807
G1 X94.501 Y105.665 F7800.000
G1 E0.07807 F2400.00000
G92 E0
G1 X95.725 Y105.406 F7800.000
G1 X96.076 Y105.056 F7800.000
G1 X96.076 Y105.056 F7800.000
G1 X96.426 Y104.705 F7800.000
G1 X96.426 Y104.352 F7800.000
G1 E2.00000 F2400.00000
G1 X95.648 Y103.574 E2.02034 F677.910
G1 X96.390 Y102.832 E2.03973
G1 X97.168 Y103.610 E2.06006
G1 X96.479 Y104.299 E2.07807
G1 X96.297 Y103.869 F7800.000
G1 E0.07807 F2400.00000
G92 E0
G1 X97.521 Y103.610 F7800.000
G1 X97.872 Y103.260 F7800.000
G1 X97.872 Y103.260 F7800.000
G1 X98.222 Y102.909 F7800.000
G1 X98.222 Y102.556 F7800.000
G1 E2.00000 F2400.00000
G1 X97.444 Y101.778 E2.02034 F677.910
G1 X98.186 Y101.036 E2.03973
G1 X98.964 Y101.814 E2.06006
G1 X98.275 Y102.503 E2.07807
G1 X98.093 Y102.073 F7800.000
G1 E0.07807 F2400.00000
G92 E0
G1 X99.317 Y101.814 F7800.000
G1 X99.668 Y101.464 F7800.000
G1 X99.668 Y101.464 F7800.000
G1 X100.018 Y101.113 F7800.000
G1 X100.018 Y100.760 F7800.000
G1 E2.00000 F2400.00000
G1 X99.240 Y99.982 E2.02034 F677.910
G1 X99.982 Y99.240 E2.03973
G1 X100.760 Y100.018 E2.06006
G1 X100.071 Y100.707 E2.07807
G1 X99.889 Y100.277 F7800.000
G1 E0.07807 F2400.00000
G92 E0
G1 X101.113 Y100.018 F7800.000
G1 X101.464 Y99.668 F7800.000
G1 X101.464 Y99.668 F7800.000
G1 X101.814 Y99.317 F7800.000
G1 X101.814 Y98.964 F7800.000
G1 E2.00000 F2400.00000
G1 X101.036 Y98.186 E2.02034 F677.910
G1 X101.778 Y97.444 E2.03973
G1 X102.556 Y98.222 E2.06006
G1 X101.867 Y98.911 E2.07807
G1 X101.685 Y98.481 F7800.000
G1 E0.07807 F2400.00000
G92 E0
G1 X102.909 Y98.222 F7800.000
G1 X103.260 Y97.872 F7800.000
G1 X103.260 Y97.872 F7800.000
G1 X103.610 Y97.521 F7800.000
G1 X103.610 Y97.168 F7800.000
G1 E2.00000 F2400.00000
G1 X102.832 Y96.390 E2.02034 F677.910
G1 X103.574 Y95.648 E2.03973
G1 X104.352 Y96.426 E2.06006
G1 X103.663 Y97.115 E2.07807
G1 X103.481 Y96.685 F7800.000
G1 E0.07807 F2400.00000
G92 E0
G1 X104.705 Y96.426 F7800.000
G1 X105.056 Y96.076 F7800.000
G1 X105.056 Y96.076 F7800.000
G1 X105.406 Y95.725 F7800.000
G1 X105.406 Y95.372 F7800.000
G1 E2.00000 F2400.00000
G1 X104.628 Y94.594 E2.02034 F677.910
G1 X105.370 Y93.852 E2.03973
G1 X106.148 Y94.630 E2.06006
G1 X105.459 Y95.319 E2.07807
G1 X105.277 Y94.889 F7800.000
G1 E0.07807 F2400.00000
G92 E0
G1 X106.501 Y94.630 F7800.000
G1 X106.852 Y94.280 F7800.000
G1 X106.852 Y94.280 F7800.000
G1 X107.202 Y93.929 F7800.000
G1 X107.202 Y93.575 F7800.000
G1 E2.00000 F2400.00000
G1 X106.425 Y92.798 E2.02034 F677.910
G1 X107.166 Y92.056 E2.03973
G1 X107.944 Y92.834 E2.06006
G1 X107.255 Y93.522 E2.07807
G1 X107.073 Y93.093 F7800.000
G1 E0.07807 F2400.00000
G92 E0
G1 X108.297 Y92.834 F7800.000
G1 X108.648 Y92.483 F7800.000
G1 X108.648 Y92.483 F7800.000
G1 X108.998 Y92.133 F7800.000
G1 X108.998 Y91.779 F7800.000
G1 E2.00000 F2400.00000
G1 X108.221 Y91.002 E2.02034 F677.910
G1 X108.962 Y90.260 E2.03973
G1 X109.740 Y91.038 E2.06006
G1 X109.051 Y91.726 E2.07807
G1 X108.869 Y91.296 F7800.000
G1 E0.07807 F2400.00000
G92 E0
G1 X110.094 Y91.038 F7800.000
G1 X110.444 Y90.687 F7800.000
G1 X110.444 Y90.687 F7800.000
G1 X110.794 Y90.337 F7800.000
G1 X110.794 Y89.983 F7800.000
G1 E2.00000 F2400.00000
G1 X110.017 Y89.206 E2.02034 F677.910
G1 X110.758 Y88.464 E2.03973
G1 X111.536 Y89.242 E2.06006
G1 X110.847 Y89.930 E2.07807
G1 X110.665 Y89.500 F7800.000
G1 E0.07807 F2400.00000
G92 E0
G1 X111.890 Y89.242 F7800.000
G1 X112.240 Y88.891 F7800.000
G1 X112.240 Y88.891 F7800.000
G1 X112.590 Y88.541 F7800.000
G1 X112.769 Y88.363 F7800.000
G1 E2.00000 F2400.00000
G1 X111.637 Y87.231 E2.04444 F1355.819
M106 S255
G1 Z1.400 F7800.000
G1 E0.04444 F2400.00000
G92 E0
G1 X90.028 Y110.750 F7800.000
G1 E2.00000 F2400.00000
G1 X89.198 Y111.580 E2.02170 F716.980
G1 X88.420 Y110.802 E2.04204
G1 X89.250 Y109.972 E2.06375
G1 X89.975 Y110.697 E2.08270
G1 X89.545 Y110.880 F7800.000
G1 X90.994 Y109.784 F7800.000
G1 X90.216 Y109.006 E2.10303 F716.980
G1 X91.046 Y108.176 E2.12474
G1 X91.824 Y108.954 E2.14508
G1 X91.047 Y109.731 E2.16539
G1 X90.864 Y109.301 F7800.000
G1 E0.16539 F2400.00000
G92 E0
G1 X92.177 Y108.954 F7800.000
G1 X92.483 Y108.648 F7800.000
G1 X92.483 Y108.648 F7800.000
G1 X92.790 Y108.342 F7800.000
G1 X92.790 Y107.988 F7800.000
G1 E2.00000 F2400.00000
G1 X92.012 Y107.210 E2.02034 F716.980
G1 X92.842 Y106.380 E2.04204
G1 X93.620 Y107.158 E2.06238
G1 X92.843 Y107.935 E2.08270
G1 X92.660 Y107.505 F7800.000
G1 E0.08270 F2400.00000
G92 E0
G1 X93.973 Y107.158 F7800.000
G1 X94.280 Y106.852 F7800.000
G1 X94.280 Y106.852 F7800.000
G1 X94.586 Y106.546 F7800.000
G1 X94.586 Y106.192 F7800.000
G1 E2.00000 F2400.00000
G1 X93.808 Y105.414 E2.02034 F716.980
G1 X94.638 Y104.584 E2.04204
G1 X95.416 Y105.362 E2.06238
G1 X94.639 Y106.139 E2.08270
G1 X94.456 Y105.709 F7800.000
G1 E0.08270 F2400.00000
G92 E0
G1 X95.769 Y105.362 F7800.000
G1 X96.076 Y105.056 F7800.000
G1 X96.076 Y105.056 F7800.000
G1 X96.382 Y104.750 F7800.000
G1 X96.382 Y104.396 F7800.000
G1 E2.00000 F2400.00000
G1 X95.604 Y103.618 E2.02034 F716.980
G1 X96.434 Y102.788 E2.04204
G1 X97.212 Y103.566 E2.06238
G1 X96.435 Y104.343 E2.08270
G1 X96.252 Y103.913 F7800.000
G1 E0.08270 F2400.00000
G92 E0
G1 X97.565 Y103.566 F7800.000
G1 X97.872 Y103.260 F7800.000
G1 X97.872 Y103.260 F7800.000
G1 X98.178 Y102.954 F7800.000
G1 X98.178 Y102.600 F7800.000
G1 E2.00000 F2400.00000
G1 X97.400 Y101.822 E2.02034 F716.980
G1 X98.230 Y100.992 E2.04204
G1 X99.008 Y101.770 E2.06238
G1 X98.231 Y102.547 E2.08270
G1 X98.048 Y102.117 F7800.000
G1 E0.08270 F2400.00000
G92 E0
G1 X99.361 Y101.770 F7800.000
G1 X99.668 Y101.464 F7800.000
G1 X99.668 Y101.464 F7800.000
G1 X99.974 Y101.158 F7800.000
G1 X99.974 Y100.804 F7800.000
G1 E2.00000 F2400.00000
G1 X99.196 Y100.026 E2.02034 F716.980
G1 X100.026 Y99.196 E2.04204
G1 X100.804 Y99.974 E2.06238
G1 X100.027 Y100.751 E2.08270
G1 X99.844 Y100.321 F7800.000
G1 E0.08270 F2400.00000
G92 E0
G1 X101.158 Y99.974 F7800.000
G1 X101.464 Y99.668 F7800.000
G1 X101.464 Y99.668 F7800.000
G1 X101.770 Y99.361 F7800.000
G1 X101.770 Y99.008 F7800.000
G1 E2.00000 F2400.00000
G1 X100.992 Y98.230 E2.02034 F716.980
G1 X101.822 Y97.400 E2.04204
G1 X102.600 Y98.178 E2.06238
G1 X101.823 Y98.955 E2.08270
G1 X101.640 Y98.525 F7800.000
G1 E0.08270 F2400.00000
G92 E0
G1 X102.954 Y98.178 F7800.000
G1 X103.260 Y97.872 F7800.000
G1 X103.260 Y97.872 F7800.000
G1 X103.566 Y97.565 F7800.000
G1 X103.566 Y97.212 F7800.000
G1 E2.00000 F2400.00000
G1 X102.788 Y96.434 E2.02034 F716.980
G1 X103.618 Y95.604 E2.04204
G1 X104.396 Y96.382 E2.06238
G1 X103.619 Y97.159 E2.08270
G1 X103.437 Y96.729 F7800.000
G1 E0.08270 F2400.00000
G92 E0
G1 X104.750 Y96.382 F7800.000
G1 X105.056 Y96.076 F7800.000
G1 X105.056 Y96.076 F7800.000
G1 X105.362 Y95.769 F7800.000
G1 X105.362 Y95.416 F7800.000
G1 E2.00000 F2400.00000
G1 X104.584 Y94.638 E2.02034 F716.980
G1 X105.414 Y93.808 E2.04204
G1 X106.192 Y94.586 E2.06238
G1 X105.415 Y95.363 E2.08270
G1 X105.233 Y94.933 F7800.000
G1 E0.08270 F2400.00000
G92 E0
G1 X106.546 Y94.586 F7800.000
G1 X106.852 Y94.280 F7800.000
G1 X106.852 Y94.280 F7800.000
G1 X107.158 Y93.973 F7800.000
G1 X107.158 Y93.620 F7800.000
G1 E2.00000 F2400.00000
G1 X106.380 Y92.842 E2.02034 F716.980
G1 X107.210 Y92.012 E2.04204
G1 X107.988 Y92.790 E2.06238
G1 X107.211 Y93.567 E2.08270
G1 X107.029 Y93.137 F7800.000
G1 E0.08270 F2400.00000
G92 E0
G1 X108.342 Y92.790 F7800.000
G1 X108.648 Y92.483 F7800.000
G1 X108.648 Y92.483 F7800.000
G1 X108.954 Y92.177 F7800.000
G1 X108.954 Y91.824 F7800.000
G1 E2.00000 F2400.00000
G1 X108.176 Y91.046 E2.02034 F716.980
G1 X109.006 Y90.216 E2.04204
G1 X109.784 Y90.994 E2.06238
G1 X109.007 Y91.771 E2.08270
G1 X108.825 Y91.341 F7800.000
G1 E0.08270 F2400.00000
G92 E0
G1 X110.138 Y90.994 F7800.000
G1 X110.444 Y90.687 F7800.000
G1 X110.444 Y90.687 F7800.000
G1 X110.750 Y90.381 F7800.000
G1 X110.750 Y90.028 F7800.000
G1 E2.00000 F2400.00000
G1 X109.972 Y89.250 E2.02034 F716.980
G1 X110.802 Y88.420 E2.04204
G1 X111.580 Y89.198 E2.06238
G1 X110.803 Y89.975 E2.08270
G1 X110.621 Y89.545 F7800.000
G1 E0.08270 F2400.00000
G92 E0
G1 X110.750 Y90.381 F7800.000
G1 X105.686 Y106.869 F7800.000
G1 X97.200 Y110.384 F7800.000
G1 X92.538 Y112.295 F7800.000
G1 X89.988 Y113.337 F7800.000
G1 X89.580 Y113.541 F7800.000
G1 X88.585 Y112.546 F7800.000
G1 X88.385 Y112.747 F7800.000
G1 E2.00000 F2400.00000
